X:1
T:St. Gall, LM
T:Cantarium S. Galli, 1845
T:St. Gall, LM
T:Public Domain
C:Cantarium S. Galli, 1845
Z:Public Domain
%%score ( 1 2 ) ( 3 4 )
L:1/8
M:4/4
K:Eb
V:1 treble 
V:2 treble 
V:3 bass 
V:4 bass 
V:1
 E2 | [EG]2 [EA]2 [DB]2 [EB]2 | [Ec]2 [Ec]2 [EB]2 [EB]2 | c2 z D [CA]2 [EG]2 | %4
 EF [EG]2 [DF]2 [DG]2 | E2 [DF]2 [EG]2 [FB]2 | [Ec]2 (FE) [FB]2 [EB]2 | c2 z D [EG]2 [EG]2 | %8
 [EF]2 [DF]2 E2 |] %9
V:2
 E2 | x8 | x8 | E3 B2 x3 | A2 x6 | x8 | x2 c2 x4 | E3 A2 x3 | x4 E2 |] %9
V:3
 [E,G,]2 | [E,B,]2 [C,E,]2 [B,,F,]2 [G,,B,]2 | [A,,A,]2 (E,F,) [E,G,]2 [E,G,]2 | %3
 [A,,A,]2 [E,G,]2 [F,A,]2 [E,B,]2 | ([C,C][D,B,]) [E,B,]2 [B,,B,]2 [G,,B,]2 | %5
 [C,G,]2 [B,,B,]2 [E,B,]2 [D,B,]2 | [C,G,]2 [F,=A,]2 [B,,B,]2 [E,G,]2 | %7
 A,2 [F,A,]2 [E,B,]2 [C,C]2 | [A,,C]2 [B,,B,]2 [E,G,]2 |] %9
V:4
 x2 | x8 | x2 A,,2 x4 | x8 | x8 | x8 | x8 | A,2 x6 | x6 |] %9

